cssgg/arrow-long-up-l.svg

<svg
  width="24"
  height="24"
  viewBox="0 0 24 24"
  fill="none"
  xmlns="http://www.w3.org/2000/svg"
>
  <path
    d="M12.0321 1.01865L16.2425 5.29327L14.8177 6.69677L13.0192 4.87094L12.9676 20.9813H14.9644V22.9813H8.96441V20.9813H10.9676L11.0194 4.82354L9.16107 6.65399L7.75757 5.22914L12.0321 1.01865Z"
    fill="currentColor"
  />
</svg>

<svg viewBox="0 0 24 24" xmlns="http://www.w3.org/2000/svg"><path d="M12.03 1.01l4.21 4.27 -1.43 1.4 -1.8-1.83 -.06 16.11h1.99v2h-6v-2h2l.05-16.16 -1.86 1.83L7.72 5.2 11.99.98Z"/></svg>
